client/src/assets/buttons/search.svg

<svg width="28" height="27" viewBox="0 0 28 27" fill="none" xmlns="http://www.w3.org/2000/svg">
<path d="M22.8667 23.625L15.5167 16.5375C14.9333 16.9875 14.2625 17.3438 13.5042 17.6063C12.7458 17.8688 11.9389 18 11.0833 18C8.96389 18 7.17014 17.2922 5.70208 15.8766C4.23403 14.4609 3.5 12.7312 3.5 10.6875C3.5 8.64375 4.23403 6.91406 5.70208 5.49844C7.17014 4.08281 8.96389 3.375 11.0833 3.375C13.2028 3.375 14.9965 4.08281 16.4646 5.49844C17.9326 6.91406 18.6667 8.64375 18.6667 10.6875C18.6667 11.5125 18.5306 12.2906 18.2583 13.0219C17.9861 13.7531 17.6167 14.4 17.15 14.9625L24.5 22.05L22.8667 23.625ZM11.0833 15.75C12.5417 15.75 13.7812 15.2578 14.8021 14.2734C15.8229 13.2891 16.3333 12.0938 16.3333 10.6875C16.3333 9.28125 15.8229 8.08594 14.8021 7.10156C13.7812 6.11719 12.5417 5.625 11.0833 5.625C9.625 5.625 8.38542 6.11719 7.36458 7.10156C6.34375 8.08594 5.83333 9.28125 5.83333 10.6875C5.83333 12.0938 6.34375 13.2891 7.36458 14.2734C8.38542 15.2578 9.625 15.75 11.0833 15.75Z" fill="#1A1A1A"/>
</svg>

<svg xmlns="http://www.w3.org/2000/svg" width="28" height="27" fill="none"><path fill="#1A1A1A" d="m22.8667 23.625-7.35-7.0875c-.5834.45-1.2542.8063-2.0125 1.0688-.7584.2625-1.5653.3937-2.4209.3937-2.1194 0-3.9132-.7078-5.3812-2.1234C4.234 14.4609 3.5 12.7312 3.5 10.6875s.734-3.7734 2.202-5.189C7.1702 4.0827 8.964 3.375 11.0834 3.375c2.1195 0 3.9132.7078 5.3813 2.1234 1.468 1.4157 2.2021 3.1454 2.2021 5.1891 0 .825-.1361 1.6031-.4084 2.3344-.2722.7312-.6416 1.3781-1.1083 1.9406L24.5 22.05l-1.6333 1.575ZM11.0833 15.75c1.4584 0 2.6979-.4922 3.7188-1.4766 1.0208-.9843 1.5312-2.1796 1.5312-3.5859 0-1.4063-.5104-2.6016-1.5312-3.586-1.0209-.9843-2.2604-1.4765-3.7188-1.4765-1.4583 0-2.6979.4922-3.7187 1.4766-1.0209.9843-1.5313 2.1796-1.5313 3.5859 0 1.4063.5104 2.6016 1.5313 3.5859 1.0208.9844 2.2604 1.4766 3.7187 1.4766Z"/></svg>
